X: 1
T:Hanter-dro 3
G:Kazimodal
R:Hanter-zas
C:Traditionnel, arrangement en dorien Ronan Keryell http://kazimodal.trad.org
Q:C2=100
P:C2
M:3/4
S:Tonio Breizh-Izel 1910 (Plawour/An Oriant)
K:C
P:C
|: EG/2F/2 EG {FG}F z | \
        (A/2G/2)(A/2B/2) {GA}GA/2F/2 E z | \
        EG/2F/2 EG {FG}F z | \
        (A/2G/2)B/2A/2 {GA}G(F/2G/2) E z :|
|: B(B/2c/2) AB {GA}GE | \
        A(A/2B/2) FA (G/2F/2)(G/2A/2) | \
        B(B/2c/2) AB {GA}GE | \
        A(A/2B/2) {GA}GF E z :|
